Papirus/16x16/apps/vieb.svg

<svg width="16" height="16" version="1.1" xmlns="http://www.w3.org/2000/svg">
 <path d="m7.9997676 7.29e-6c-0.4190662 0-0.8384125 0.15619848-1.1516747 0.46945321l-6.3786467 6.3793576c-0.62652475 0.6265088-0.62563599 1.6749775 9.1429e-4 2.301487l6.3786467 6.3793579c0.6265247 0.626509 1.675928 0.627398 2.3024527 9.14e-4l6.3786471-6.3793572c0.626524-0.6265095 0.626524-1.6758758 0-2.3023849l-6.3786639-6.3793744c-0.3132621-0.31325469-0.7326088-0.46945321-1.1516755-0.46945321z" style="fill:#a42a2a"/>
 <path d="M 1.5,2 C 1.223,2 1,2.223 1,2.5 1,2.777 1.223,3 1.5,3 H 2 v 9.5 c 1.444e-4,1.351007 1.6461271,2.013385 2.5820312,1.039062 L 14.787109,2.8984375 C 14.912867,2.8078002 15,2.6675336 15,2.5 15,2.223 14.777,2 14.5,2 h -4 C 10.223,2 10,2.223 10,2.5 10,2.777 10.223,3 10.5,3 h 0.03125 L 5,8.7675781 V 3 H 5.5 C 5.777,3 6,2.777 6,2.5 6,2.223 5.777,2 5.5,2 Z" style="fill-rule:evenodd;fill:#e4e4e4"/>
</svg>

<svg xmlns="http://www.w3.org/2000/svg" width="16" height="16" version="1">
 <path style="fill:#a42a2a" d="m 7.9997676,7.29e-6 c -0.4190662,0 -0.8384125,0.15619848 -1.1516747,0.46945321 L 0.46944623,6.8488181 c -0.62652475,0.6265088 -0.62563599,1.6749775 9.1429e-4,2.301487 L 6.8490072,15.529663 c 0.6265247,0.626509 1.675928,0.627398 2.3024527,9.14e-4 L 15.530107,9.1512198 c 0.626524,-0.6265095 0.626524,-1.6758758 0,-2.3023849 L 9.1514431,0.4694605 C 8.838181,0.15620581 8.4188343,7.29e-6 7.9997676,7.29e-6 Z"/>
 <path style="fill:#e4e4e4" d="M 1.5 2 C 1.223 2 1 2.223 1 2.5 C 1 2.777 1.223 3 1.5 3 L 2 3 L 2 12.5 C 2.0001444 13.851007 3.6461271 14.513385 4.5820312 13.539062 L 14.787109 2.8984375 C 14.912867 2.8078002 15 2.6675336 15 2.5 C 15 2.223 14.777 2 14.5 2 L 10.5 2 C 10.223 2 10 2.223 10 2.5 C 10 2.777 10.223 3 10.5 3 L 10.53125 3 L 5 8.7675781 L 5 3 L 5.5 3 C 5.777 3 6 2.777 6 2.5 C 6 2.223 5.777 2 5.5 2 L 1.5 2 z"/>
</svg>
